X: 20381
Q: "Briskly."
M: 2/4
L: 1/16
K: D
d2d2 d2ef | B2B2B2d2 |\
d2dd d2ef | B2BB B2dd |\
e2(ed) c2(cB) | A2B2c2A2 |\
e2ed c2c2 | (BA)(Bc) A2AA |
e2ed c2cB | A2B2c2A2 |\
e2ed c2BA | B2e2A2z2 |\
dddd d2ef | B2B2 B2cd |\
d2dd d2ef | B2HB2B2d2 |\


